X:1
T:Title
%%score { ( 1 3 ) | ( 2 4 ) }
L:1/8
Q:1/4=96
M:4/4
K:G
V:1 treble nm="Grand Piano"
V:3 treble 
V:2 bass 
V:4 bass 
V:1
 [DB]>[CA] [B,G]>[CA] [DB]2 [B,D]2 | [G,CE]>[G,DF] [G,EG]>[CEA] [B,DG]4 | %2
w: Samuel~W.~Beazley * * * * *||
 [DB]>[CA] [B,G]>[CA] [DB]2 [Dd]2 | A>^G A>B A4 | [DB]>[CA] [B,G]>[CA] [DB]2 [B,D]2 | %5
w: |||
 [CE]>[DF] [EG]>[EA] [^DB]4 | [Dc]>[DA] [Dd]>G B2 A>B | [B,G]6 z2 | %8
w: |||
 [FA]>[E^G] [FA]>[=GB] [Ac]2 [FA]2 | G>F G>B d4 | [FA]>[=F^G] [^FA]>[=GB] [Ac]2 [FA]2 | z4 [Fd]4 | %12
w: ||||
 d>c B>c d>B [DG]>D | E>[DF] [EG]>[EA] [^DB]4 | [Dc]>[DA] [Dd]>G B2 A>B | [B,G]6 z2 |] %16
w: ||||
V:2
 [G,,G,]>[G,,G,] [G,,G,]>[G,,G,] [G,,G,]2 [G,,G,]2 | C,>C, C,>C, G,,4 | %2
 [G,,G,]>[G,,G,] [G,,G,]>[G,,G,] [G,,G,]2 [B,,G,]2 | [D,F,D]>[D,=F,D] [D,^F,D]>[D,G,D] [D,F,D]4 | %4
 [G,,G,]>[G,,G,] [G,,G,]>[G,,G,] [G,,G,]2 [G,,G,]2 | [C,G,]>[^C,A,] [C,G,]>[C,E,] [B,,F,]4 | %6
 [A,,F,]>[C,F,] [B,,G,]>[E,G,^C] [D,G,D]2 [D,F,=C]>[D,F,D] | [G,,G,]6 z2 | %8
 [D,D]>[D,D] [D,D]>[D,D] [D,D]2 [D,C]2 | [G,B,D]>[G,A,D] [G,B,D]>[G,DG] [G,B,G]4 | %10
 [D,D]>[D,D] [D,D]>[D,D] [D,D]2 [D,D]2 | [G,D]>[G,D] [E,A,]>[E,A,] A,2 z2 | %12
 [G,B,G]>[G,A,G] [G,D]>[G,A,D] [G,B,G]>[K:bass][G,D] [B,,G,]>[B,,G,] | %13
 [C,G,C]>[C,A,] [C,G,]>[C,E,] [B,,F,]4 | %14
 [A,,F,]>[C,F,] [B,,G,]>[E,G,^C] [D,G,D]2 [D,F,=C]>[D,F,D] | [G,,G,]6 z2 |] %16
V:3
 x8 | x8 | x8 | x8 | x8 | x8 | x8 | x8 | x8 | x8 | x8 | [GB]>[GB] [G^c]>[Gc] z2 C2 | x8 | x8 | x8 | %15
 x8 |] %16
V:4
 x8 | x8 | x8 | x8 | x8 | x8 | x8 | x8 | x8 | x8 | x8 | z4 D,4 | x11/2[K:bass] x5/2 | x8 | x8 | %15
 x8 |] %16

